assets/images/heartDamaged.svg

<svg width="21" height="20" viewBox="0 0 21 20" fill="none" xmlns="http://www.w3.org/2000/svg">
<path d="M19.16 2.61C18.0983 1.548 16.6908 0.902323 15.1933 0.790378C13.6958 0.678433 12.2078 1.10766 11 2C9.72769 1.05363 8.14402 0.624508 6.56795 0.799034C4.99188 0.97356 3.54047 1.73877 2.506 2.94058C1.47154 4.14239 0.930854 5.69152 0.992833 7.27601C1.05481 8.8605 1.71485 10.3627 2.84003 11.48L10.29 18.94C10.383 19.0337 10.4936 19.1081 10.6155 19.1589C10.7373 19.2097 10.868 19.2358 11 19.2358C11.132 19.2358 11.2627 19.2097 11.3846 19.1589C11.5065 19.1081 11.6171 19.0337 11.71 18.94L19.16 11.48C19.7427 10.8977 20.2049 10.2063 20.5202 9.44536C20.8356 8.68439 20.9979 7.86873 20.9979 7.045C20.9979 6.22127 20.8356 5.40561 20.5202 4.64463C20.2049 3.88365 19.7427 3.19227 19.16 2.61V2.61ZM17.75 10.06L11 16.81L4.25003 10.06C3.47545 9.30351 3.01797 8.28047 2.97058 7.1988C2.92319 6.11713 3.28944 5.05799 3.99489 4.23666C4.70035 3.41533 5.69207 2.89342 6.7685 2.77702C7.84494 2.66062 8.9253 2.95846 9.79003 3.61L8.08003 7.61C8.02061 7.74028 7.98985 7.8818 7.98985 8.025C7.98985 8.16819 8.02061 8.30971 8.08003 8.44C8.14354 8.57013 8.23456 8.68492 8.34678 8.77643C8.45901 8.86794 8.58977 8.93399 8.73003 8.97L11.5 9.67L10.1 12.56C10.042 12.6781 10.0079 12.8066 9.9996 12.9379C9.99133 13.0693 10.0091 13.201 10.0518 13.3255C10.0945 13.45 10.1614 13.5648 10.2486 13.6634C10.3359 13.762 10.4417 13.8424 10.56 13.9C10.6972 13.9664 10.8477 14.0006 11 14C11.1875 14.0004 11.3712 13.9481 11.5303 13.8491C11.6895 13.75 11.8176 13.6083 11.9 13.44L13.9 9.44C13.964 9.30568 13.9972 9.15877 13.9972 9.01C13.9972 8.86122 13.964 8.71432 13.9 8.58C13.8339 8.44591 13.74 8.32748 13.6244 8.23263C13.5089 8.13778 13.3744 8.06869 13.23 8.03L10.4 7.32L11.85 3.93C12.6629 3.14496 13.7544 2.71499 14.8843 2.73468C16.0142 2.75437 17.09 3.22211 17.875 4.035C18.6601 4.84789 19.09 5.93934 19.0703 7.06924C19.0507 8.19915 18.5829 9.27496 17.77 10.06H17.75Z" fill="white"/>
</svg>

<svg width="21" height="20" fill="none" xmlns="http://www.w3.org/2000/svg"><path d="M19.16 2.61A6.27 6.27 0 0 0 11 2a6.27 6.27 0 0 0-8.16 9.48l7.45 7.46a1.001 1.001 0 0 0 1.42 0l7.45-7.46a6.27 6.27 0 0 0 0-8.87Zm-1.41 7.45L11 16.81l-6.75-6.75a4.26 4.26 0 0 1 5.54-6.45l-1.71 4a1 1 0 0 0 0 .83 1 1 0 0 0 .65.53l2.77.7-1.4 2.89a1 1 0 1 0 1.8.88l2-4a1 1 0 0 0-.276-1.207 1.05 1.05 0 0 0-.394-.203l-2.83-.71 1.45-3.39a4.261 4.261 0 0 1 5.92 6.13h-.02Z" fill="#fff"/></svg>
